X:39
T: Walter Bulwer's 2
R: polka
M: 4/4
L: 1/4
K: Dmaj
|: "G" DG GF/G/ | "C" AE E2 | "D" F/G/A F/G/A | "G" BG G2 |
   "G" DG GF/G/ | "C" AE E2 | "D" F/G/A DE/F/ | "G" GG G2 :|
|: "D" AA "G/D" BB | "D/F#" AA "D" F2 | "A/G" GG "A" E/F/G      | "D" AA F/G/A | 
   "D" AA "G/D" BB | "D/F#" AA "D" F2 | "A/G" GG "A" E/G/F/E/   | "D" DF D2 :|

